packages/vapor/resources/icons/svg/source-web.svg

<svg enable-background="new 0 0 64 64" viewBox="0 0 64 64"><path d="m60 0h-56c-2.2 0-4 1.8-4 4v56c0 2.2 1.8 4 4 4h56c2.2 0 4-1.8 4-4v-56c0-2.2-1.8-4-4-4" fill="#1f263f"/><path d="m51 33c0-5.7-2.5-11.1-6.9-14.7-3.3-2.7-7.3-4.2-11.5-4.3h-.9c-.1 0-.1 0-.2 0-10.5.6-18.6 9.6-18 20 .5 9.7 8.2 17.4 17.9 17.9h.2l.4.1h.6c10.3-.3 18.4-8.7 18.4-19zm-7.2 12.2c0-.1 0-.1 0 0-1.4-1.1-2.8-2-4.4-2.6 1.1-2.7 1.7-5.6 1.9-8.5h7.7c-.3 4.1-2.1 8.1-5.2 11.1zm-11.8 4.8c-1.9-1.8-3.5-4-4.7-6.3 3.1-.9 6.4-.9 9.5 0-1.2 2.4-2.9 4.5-4.8 6.3zm-3.1-.3c-2.6-.5-5.1-1.6-7.2-3.2 1.1-.9 2.3-1.6 3.6-2.1 1 1.9 2.2 3.7 3.6 5.3zm3.1-33.7c1.8 1.7 3.3 3.6 4.4 5.8-1.5.4-3 .6-4.5.6s-3-.2-4.5-.6c1.3-2.2 2.8-4.1 4.6-5.8zm-6.4 5.1c-1.2-.5-2.4-1.2-3.5-1.9 2-1.4 4.3-2.4 6.8-2.9-1.3 1.5-2.4 3.1-3.3 4.8zm9.5-4.8c2.4.5 4.8 1.4 6.8 2.9-1.1.8-2.3 1.4-3.5 1.9-.9-1.7-2-3.3-3.3-4.8zm-3.1 8.1c1.8 0 3.6-.3 5.4-.8 1.2 2.7 1.9 5.5 2 8.4h-14.7c.1-2.9.8-5.8 2-8.4 1.7.5 3.5.8 5.3.8zm7.3 9.6c-.1 2.7-.7 5.4-1.7 7.8-3.7-1.1-7.6-1.1-11.2 0-1-2.5-1.6-5.2-1.7-7.8zm-.6 10.4c1.3.6 2.5 1.3 3.6 2.1-2.1 1.6-4.6 2.7-7.2 3.2 1.4-1.6 2.6-3.4 3.6-5.3zm10.2-12.4h-7.6c-.1-3.1-.8-6.2-2.1-9.1 1.5-.6 2.9-1.4 4.2-2.4 3.3 3 5.3 7.1 5.5 11.5zm-28.4-11.5c1.3 1 2.7 1.8 4.2 2.4-1.2 2.9-1.9 6-2.1 9.1h-7.6c.3-4.4 2.3-8.5 5.5-11.5zm-5.4 13.5h7.6c.1 2.9.7 5.8 1.8 8.5-1.5.7-3 1.5-4.3 2.5 0 0-.1.1-.1.1-3-2.9-4.8-6.9-5-11.1z" fill="#fff"/></svg>

<?xml version="1.0" encoding="utf-8"?>
<svg version="1.1" viewBox="0 0 64 64" style="enable-background:new 0 0 64 64;">
<path fill="#1F263F" d="M60,0H4C1.8,0,0,1.8,0,4v56c0,2.2,1.8,4,4,4h56c2.2,0,4-1.8,4-4V4C64,1.8,62.2,0,60,0"/>
<path fill="#FFFFFF" d="M51,33c0-5.7-2.5-11.1-6.9-14.7c-3.3-2.7-7.3-4.2-11.5-4.3h-0.9c-0.1,0-0.1,0-0.2,0C21,14.6,12.9,23.6,13.5,34
	c0.5,9.7,8.2,17.4,17.9,17.9h0.2L32,52h0.6C42.9,51.7,51,43.3,51,33z M43.8,45.2C43.8,45.1,43.8,45.1,43.8,45.2
	c-1.4-1.1-2.8-2-4.4-2.6c1.1-2.7,1.7-5.6,1.9-8.5H49C48.7,38.2,46.9,42.2,43.8,45.2z M32,50c-1.9-1.8-3.5-4-4.7-6.3
	c3.1-0.9,6.4-0.9,9.5,0C35.6,46.1,33.9,48.2,32,50z M28.9,49.7c-2.6-0.5-5.1-1.6-7.2-3.2c1.1-0.9,2.3-1.6,3.6-2.1
	C26.3,46.3,27.5,48.1,28.9,49.7z M32,16c1.8,1.7,3.3,3.6,4.4,5.8c-1.5,0.4-3,0.6-4.5,0.6c-1.5,0-3-0.2-4.5-0.6
	C28.7,19.6,30.2,17.7,32,16z M25.6,21.1c-1.2-0.5-2.4-1.2-3.5-1.9c2-1.4,4.3-2.4,6.8-2.9C27.6,17.8,26.5,19.4,25.6,21.1z M35.1,16.3
	c2.4,0.5,4.8,1.4,6.8,2.9c-1.1,0.8-2.3,1.4-3.5,1.9C37.5,19.4,36.4,17.8,35.1,16.3z M32,24.4c1.8,0,3.6-0.3,5.4-0.8
	c1.2,2.7,1.9,5.5,2,8.4H24.7c0.1-2.9,0.8-5.8,2-8.4C28.4,24.1,30.2,24.4,32,24.4z M39.3,34c-0.1,2.7-0.7,5.4-1.7,7.8
	c-3.7-1.1-7.6-1.1-11.2,0c-1-2.5-1.6-5.2-1.7-7.8H39.3z M38.7,44.4c1.3,0.6,2.5,1.3,3.6,2.1c-2.1,1.6-4.6,2.7-7.2,3.2
	C36.5,48.1,37.7,46.3,38.7,44.4z M48.9,32h-7.6c-0.1-3.1-0.8-6.2-2.1-9.1c1.5-0.6,2.9-1.4,4.2-2.4C46.7,23.5,48.7,27.6,48.9,32z
	 M20.5,20.5c1.3,1,2.7,1.8,4.2,2.4c-1.2,2.9-1.9,6-2.1,9.1h-7.6C15.3,27.6,17.3,23.5,20.5,20.5z M15.1,34h7.6
	c0.1,2.9,0.7,5.8,1.8,8.5c-1.5,0.7-3,1.5-4.3,2.5c0,0-0.1,0.1-0.1,0.1C17.1,42.2,15.3,38.2,15.1,34z"/>
</svg>
